X: 1637
T: Anne-Marie Morrison Of Borve
R: jig
M: 6/8
K: Amajor
A|:A2A GAB|AGA EDC|DEF EDC|DB,B,B,2A|
A2A GAB|AGA E2G|A2dc2B|1 cAAA2A:|2 cAA Acd||
|:e2c dcB|Aag a2c|d2fe2c|dBB Bcd|
[1e2c dcB|Aag a2c|d2B Ged|cAA Acd:|
[2c2ec2f|ef=g f^ga|g2e dcB|cAAA2||

